icon/fa/paintbrush.svg

<svg xmlns="http://www.w3.org/2000/svg" viewBox="0 0 576 512"><!--! Font Awesome Free 6.1.2 by @fontawesome - https://fontawesome.com License - https://fontawesome.com/license/free (Icons: CC BY 4.0, Fonts: SIL OFL 1.1, Code: MIT License) Copyright 2022 Fonticons, Inc.--><path d="M224 263.3c.2-30 14.4-58.1 38.4-76.1L499.1 9.605c18.6-13.958 44.5-12.57 61.6 3.295 17 15.86 20.1 41.64 7.5 61.17L406.5 324.1c-15.2 23.6-39.9 39.1-67.2 43L224 263.3zM320 400c0 61.9-50.1 112-112 112H64c-17.67 0-32-14.3-32-32s14.33-32 32-32h4.81c17.63 0 29.59-18.9 27.78-36.4-.39-3.8-.59-7.7-.59-11.6 0-60.4 47.9-109.7 107.7-111.9l116.1 104.4c.1 1.6.2 5 .2 7.5z"/></svg>

<svg xmlns="http://www.w3.org/2000/svg" viewBox="0 0 576 512" height="1em" width="1em">
<!--! Font Awesome Free 6.1.2 by @fontawesome - https://fontawesome.com License - https://fontawesome.com/license/free (Icons: CC BY 4.0, Fonts: SIL OFL 1.1, Code: MIT License) Copyright 2022 Fonticons, Inc.-->
  <path d="M224 263.3C224.2 233.3 238.4 205.2 262.4 187.2L499.1 9.605C517.7-4.353 543.6-2.965 560.7 12.9C577.7 28.76 580.8 54.54 568.2 74.07L406.5 324.1C391.3 347.7 366.6 363.2 339.3 367.1L224 263.3zM320 400C320 461.9 269.9 512 208 512H64C46.33 512 32 497.7 32 480C32 462.3 46.33 448 64 448H68.81C86.44 448 98.4 429.1 96.59 411.6C96.2 407.8 96 403.9 96 400C96 339.6 143.9 290.3 203.7 288.1L319.8 392.5C319.9 394.1 320 397.5 320 400V400z"/>
</svg>
